!!!OTL: 62b. Her van Valkensten.
!!!ARE: Europa, Mitteleuropa, Deutschland, Westfalen, Bielefeld
!!!SCT: E0062
!!!TXL: @@GML
!!!YEM: Copyright 1995, estate of Helmut Schaffrath.
**kern	**text
*ICvox	*
*M4/4	*
*met(c)	*
*k[b-e-]	*
*g:	*
!LO:TX:a:t=Gemächlich.	!
!LO:TX:a:t=Mündlich aus der Gegend v. Bielefeld in Weſtfalen.	!
{4dd	Jk
=1	=1
4dd	ſach
8cc	mi-
8b-	-nen
4a	Her
4dd	van
=2	=2
4dd	Val-
8ccL	-ken-
8b-J	.
4.a}	-ſten
{8cc	to
=3	=3
4b-/	ſi-
4a	-ner
4g	Burch
4g	up
=4	=4
2f#	rie-
4g;}	-en;
{8g	e-
8g	-nen
=5	=5
4a	Schilt
8b-	had-
8b-	-de
4cc	he
4a	in
=6	=6
4b-	ſi-
4cc	-ner
4.dd}	Hant,
{8cc	blank
=7	=7
4b-/	Swert
4a	an
4g	ſi-
4g	-ner
=8	=8
2f#	Sie-
4g;}	-den.
==	==
!!!AGN: erzaehlendes Volks - Lied, Ritter - Sage, Ballade ?
!!!ONB: ESAC (Essen Associative Code) Database: ERK1
!!!AMT: simple quadruple
!!!AIN: vox
!!!EED: Helmut Schaffrath
!!!EEV: 1.0
!!!GTL: Sagen von Mordthaten, unschuldig Gesangeg und Hinrichtungen
!!!URL-scan: https://rosdok.uni-rostock.de/mcrviewer/recordIdentifier/rosdok_ppn745146120/iview2/phys_0281.iview2?x=-495.6391625615772&y=1075.4130356204696&scale=0.46294184720638515&rotation=0&layout=singlePageLayout&logicalDiv=log_0009
!!!ENC: Anna Maria Matuszewska
!!!EEV: 2024/11/26
*-	*-
